X: 1
T:Paddy O'Rafferty (1)
R:Jig
S:Unknown fiddle player (James Cullinane)
D:Clare FM broadcast. From the Miltown Malbay fiddle recital.
M:6/8
Z:Bernie Stocks
K:G
G3 AGE | BAB AGE | ~G3 AGE | GAB GED | GFG AGE | GAB cde | dBG AGE | GAB GED ||
BGG AGG | BGG AGE | BGG AGE | GAB GED | BAB ~c3 | ~d3 g3 | dBG AGE | GAB GED ||
dge dBG | ABA ABc | dge dBG | dgf g2a | bag agf | gfe dcB | ~c3 ~B3 | AGE GED ||
G2d BGd | BGd AFD | G2d BGd | AFd AFD | G2d BGd | BGd ABc | BAG AGE | GAE GED ||
EFD EFD | ABA BGE | EFD EFD | GAG GED | EFD EFD | A3 AB^c | BAG AGE | GEA GED ||
